X:1
T:Miss Syme Wilson
T:Miss Syme Wilson
T:William Marshall
C:William Marshall
%%score { ( 1 2 ) 3 }
L:1/8
M:4/4
K:C
V:1 treble 
V:2 treble 
V:3 bass 
V:1
 f | (edTcB) c2 [DG]F | EGce fddf | (edTcB) c2 GF | EcDF ECC :: f | efge c'ege | %7
 [ca]f[cg]e [cf]d[Bd]f |1 efge c'ege | fagf ecc :|2 ecfd gegf | egdf ecc |] %12
V:2
 x | x8 | x8 | x6 D2 | x7 :: x | x8 | x8 |1 x8 | x7 :|2 x8 | x7 |] %12
V:3
 z | [Cc]2 [Cc]2 [Cc]2 [Bb]2 | [Cc]2 [Cc]2 [Ff]2 [Gg]2 | [Cc]2 [Cc]2 [Cc]2 [Bb]2 | %4
 [Cc]2 [Gg]2 [Cc]2 [Cc] :: z | [cc']2 [cc']2 [cc']2 [cc']2 | [Ff]2 [Ee]2 [Ff]2 [Gg]2 |1 %8
 [cc']2 [cc']2 [cc']2 [cc']2 | [Ff]2 [Gg]2 [Cc]2 [Cc] :|2 [cc']2 [=B=b]2 [_B_b]2 [Aa]2 | %11
 [Gg]2 [Gg]2 [Cc]2 [Cc] |] %12

